packages/foundations/assets/icons/functional/images/layout/grid_28.svg

<svg width="28" height="28" viewBox="0 0 28 28" fill="none" xmlns="http://www.w3.org/2000/svg">
<g clip-path="url(#clip0_185_1347)">
<path fill-rule="evenodd" clip-rule="evenodd" d="M22.8375 15.75C24.2389 15.75 25.375 16.8861 25.375 18.2875V22.8375C25.375 24.2389 24.2389 25.375 22.8375 25.375H18.2805C16.8818 25.3711 15.75 24.2362 15.75 22.8375V18.2875C15.75 16.8861 16.8861 15.75 18.2875 15.75H22.8375ZM22.8381 17.5H18.2869C17.8523 17.5 17.5 17.8526 17.5 18.2875V22.8375C17.5 23.2724 17.8523 23.625 18.2869 23.625H22.8381C23.2727 23.625 23.625 23.2724 23.625 22.8375V18.2875C23.625 17.8526 23.2727 17.5 22.8381 17.5ZM22.8393 2.625C24.2397 2.625 25.375 3.76056 25.375 5.16135V9.70928C25.3762 10.3827 25.1095 11.029 24.6339 11.5056C24.1582 11.9822 23.5126 12.25 22.8393 12.25H18.2857C16.8853 12.25 15.75 11.1144 15.75 9.71365V5.16135C15.75 3.76056 16.8853 2.625 18.2857 2.625H22.8393ZM22.8381 4.375L18.2869 4.37937C17.8523 4.37937 17.5 4.7317 17.5 5.16631V9.71306C17.5 10.1477 17.8523 10.5 18.2869 10.5H22.8381C23.2727 10.5 23.625 10.1477 23.625 9.71306V5.16194C23.625 4.72732 23.2727 4.375 22.8381 4.375ZM9.7125 15.75C11.1139 15.75 12.25 16.8861 12.25 18.2875V22.8375C12.25 24.2389 11.1139 25.375 9.7125 25.375H5.1625C3.76108 25.375 2.625 24.2389 2.625 22.8375V18.2875C2.625 16.8861 3.76108 15.75 5.1625 15.75H9.7125ZM9.7125 17.5H5.1625C4.95364 17.5 4.75334 17.583 4.60565 17.7307C4.45797 17.8783 4.375 18.0786 4.375 18.2875V22.8375C4.375 23.2724 4.72758 23.625 5.1625 23.625H9.7125C10.1474 23.625 10.5 23.2724 10.5 22.8375V18.2875C10.5 17.8526 10.1474 17.5 9.7125 17.5ZM9.71365 2.625C11.1144 2.625 12.25 3.76056 12.25 5.16135V9.70928C12.2512 10.3823 11.9848 11.0281 11.5096 11.5046C11.0344 11.9812 10.3893 12.2493 9.71627 12.25H5.16135C3.76056 12.25 2.625 11.1144 2.625 9.71365V5.16135C2.625 3.76056 3.76056 2.625 5.16135 2.625H9.71365ZM9.71569 4.375L5.16456 4.37937C4.95585 4.37937 4.75569 4.46228 4.60811 4.60986C4.46053 4.75744 4.37762 4.9576 4.37762 5.16631V9.71306C4.37762 9.92177 4.46053 10.1219 4.60811 10.2695C4.75569 10.4171 4.95585 10.5 5.16456 10.5H9.71569C10.1503 10.5 10.5026 10.1477 10.5026 9.71306V5.16194C10.5026 4.95323 10.4197 4.75307 10.2721 4.60549C10.1246 4.45791 9.9244 4.375 9.71569 4.375Z" fill="#1A1C1F"/>
</g>
<defs>
<clipPath id="clip0_185_1347">
<rect width="28" height="28" fill="white"/>
</clipPath>
</defs>
</svg>

<svg xmlns="http://www.w3.org/2000/svg" width="28" height="28" fill="none"><g clip-path="url(#a)"><path fill="#1A1C1F" fill-rule="evenodd" d="M22.838 15.75a2.54 2.54 0 0 1 2.537 2.538v4.55a2.54 2.54 0 0 1-2.538 2.537h-4.556a2.54 2.54 0 0 1-2.531-2.538v-4.55a2.54 2.54 0 0 1 2.538-2.537zm0 1.75h-4.551a.787.787 0 0 0-.787.788v4.55c0 .434.352.787.787.787h4.551a.787.787 0 0 0 .787-.788v-4.55a.787.787 0 0 0-.787-.787m.001-14.875c1.4 0 2.536 1.136 2.536 2.536V9.71a2.537 2.537 0 0 1-2.536 2.541h-4.553a2.536 2.536 0 0 1-2.536-2.536V5.16c0-1.4 1.135-2.536 2.536-2.536zm0 1.75-4.552.004a.787.787 0 0 0-.787.787v4.547c0 .435.352.787.787.787h4.551a.787.787 0 0 0 .787-.787V5.162a.787.787 0 0 0-.787-.787M9.712 15.75a2.54 2.54 0 0 1 2.537 2.538v4.55a2.54 2.54 0 0 1-2.537 2.537h-4.55a2.54 2.54 0 0 1-2.538-2.538v-4.55a2.54 2.54 0 0 1 2.537-2.537zm0 1.75h-4.55a.787.787 0 0 0-.788.788v4.55c0 .434.353.787.787.787h4.55a.79.79 0 0 0 .788-.788v-4.55a.79.79 0 0 0-.787-.787m0-14.875c1.401 0 2.537 1.136 2.537 2.536V9.71a2.536 2.536 0 0 1-2.534 2.541H5.161a2.536 2.536 0 0 1-2.536-2.536V5.16c0-1.4 1.136-2.536 2.536-2.536zm.003 1.75-4.551.004a.787.787 0 0 0-.787.787v4.547a.787.787 0 0 0 .787.787h4.55a.787.787 0 0 0 .788-.787V5.162a.787.787 0 0 0-.787-.787" clip-rule="evenodd"/></g><defs><clipPath id="a"><path fill="#fff" d="M0 0h28v28H0z"/></clipPath></defs></svg>
